/* XPM */
static char *workspace_star[] = {
"16 16 9 1",
"  c None",
". c #080916",
"o c #15182c",
"O c #ffae3f",
"+ c #ffd76a",
"@ c #e05924",
"# c #8b4a2a",
"$ c #fff0b0",
"% c #2f3350",
"                ",
"                ",
"       O        ",
"       +        ",
"      O$O       ",
"   O  +$+  O    ",
"    O O$O O     ",
"     O+$+O      ",
"  OO++$$$++OO   ",
"    @@O$O@@     ",
"     #O O#      ",
"    #O   O#     ",
"   O       O    ",
"                ",
"                ",
"                "
};
