/* XPM */
static char *workspace_lantern[] = {
"16 16 10 1",
"  c None",
". c #080916",
"o c #15182c",
"O c #1f2037",
"+ c #ffae3f",
"@ c #ffd76a",
"# c #e05924",
"$ c #7a2f2b",
"% c #59617f",
"& c #2f3350",
"                ",
"      %%        ",
"     %&&%       ",
"      &&        ",
"    $$$$$$      ",
"   $#++++#$     ",
"   #+@@@@+#     ",
"   #+@@@@+#     ",
"   #+@@@@+#     ",
"   $#++++#$     ",
"    $$$$$$      ",
"     O##O       ",
"      ##        ",
"     OOOO       ",
"                ",
"                "
};
